X: 55
T:Whitecross
R:reel
C:Ed Reavy
M:2/2
L:1/8
Z:Joe Reavy
N:A title Ed picked for Lou Quinn, 
N:a lifetime close friend who comes from 
N:a place near Whitecross in County Armagh. 
N:It was mainly through Lou's encouragement 
N:and support that Ed continued to 
N:write traditional tunes for the 
N:last sixty years.
K:G
B,C|DG (3GFG G,A,B,C|DEFD (3GFG GA|BGdG Bcde|=fdBd Af (3FEF|
GABc de=fd|g^fdB c2 Bc|dg (3gfg dcBd|1cA=FA G2:|
2cA=FA G2 GA||K:Bb B2 df =egcA|B2 dB AcFA|B2 df =egcA|
(3Bcd cA BGGA|B2 FB DBFB|DBFB AF (3F=EF|GABc d2 CA|
BdcA BGGA|B2 df =egcA|B2 dB AcFA|B2 df =egcA|
(3Bcd cA BGGA|B2 FB DBFB|DBFB AF (3F=EF|
GABc (3dcB (3cbA|BdcA BGG=F||
